packages/foundations/assets/icons/functional/images/human/users.svg

<svg xmlns="http://www.w3.org/2000/svg" width="32" height="32" fill="none"><path fill="#1A1C1F" fill-rule="evenodd" d="M9.6 4.079a5.49 5.49 0 0 0-4.586 5.395c-.003 2.694 1.857 4.935 4.513 5.436.635.12 1.732.081 2.338-.083.833-.225 1.674-.657 1.929-.991.152-.2.215-.538.157-.847-.044-.232-.314-.552-.548-.65-.331-.138-.632-.094-1.104.163-.671.364-1.119.482-1.819.479-.687-.003-1.218-.149-1.775-.486-1.622-.981-2.168-3.095-1.23-4.753.094-.166.353-.485.575-.708.33-.332.495-.45.91-.649.599-.287.907-.358 1.547-.358.673 0 .953.071 1.683.43.702.345.874.376 1.226.216a.988.988 0 0 0 .44-1.436c-.214-.347-1.143-.836-2.01-1.058-.651-.167-1.597-.209-2.246-.1m11.125-.024c-1.779.28-3.277 1.34-4.089 2.894-1.644 3.145.039 6.935 3.497 7.879.602.164 1.698.203 2.34.082a5.51 5.51 0 0 0 4.437-4.437c.121-.642.082-1.738-.082-2.34-.256-.939-.674-1.693-1.313-2.371a5.46 5.46 0 0 0-2.875-1.635c-.459-.1-1.49-.139-1.915-.072m1.526 2.029c.155.032.51.167.789.301a3.46 3.46 0 0 1 1.845 2.255c.117.452.117 1.253.001 1.707-.305 1.184-1.171 2.102-2.352 2.49-.354.117-.528.142-1.014.144-1.005.005-1.763-.309-2.486-1.03-.331-.329-.451-.498-.65-.911-.307-.638-.381-1.014-.343-1.749.048-.927.346-1.599.998-2.252.501-.502 1.187-.871 1.814-.975.281-.048 1.127-.035 1.398.02M6.533 17.075c-1.558.172-2.84.914-3.628 2.099-.443.666-.68 1.305-.829 2.239-.089.563-.133 5.408-.051 5.772a1 1 0 0 0 1.149.791c.316-.047.694-.373.769-.663.027-.106.06-1.417.074-2.913.02-2.213.04-2.787.108-3.082.245-1.06.965-1.828 2.008-2.141.381-.114 1.582-.187 3.12-.19 1.422-.003 1.561-.036 1.823-.432.124-.187.151-.285.151-.555q0-.622-.52-.874c-.225-.108-.302-.112-1.991-.106-.966.004-1.948.029-2.183.055m11.2-.024c-.524.048-1.185.189-1.563.335-1.544.595-2.634 1.878-3.013 3.546-.101.446-.11.694-.13 3.378-.02 2.889-.02 2.897.096 3.136.171.354.46.527.877.527q.621 0 .874-.52c.109-.226.113-.301.114-2.47.001-2.37.051-3.38.19-3.861a2.82 2.82 0 0 1 1.94-1.944c.555-.163 1.688-.203 4.972-.176 2.719.022 3.219.038 3.56.116 1.148.262 1.96 1.065 2.226 2.2.069.296.091.879.118 3.189.031 2.69.038 2.835.138 3.001.353.584 1.239.642 1.645.109.248-.325.264-.551.235-3.292-.021-1.942-.047-2.657-.111-3.045-.189-1.151-.628-2.047-1.361-2.776-.835-.83-1.838-1.291-3.127-1.436-.441-.049-7.161-.065-7.68-.017"/></svg>

<svg width="32" height="32" viewBox="0 0 32 32" fill="none" xmlns="http://www.w3.org/2000/svg"><path d="M9.600 4.079 C 6.962 4.520,5.017 6.808,5.014 9.474 C 5.011 12.168,6.871 14.409,9.527 14.910 C 10.162 15.030,11.259 14.991,11.865 14.827 C 12.698 14.602,13.539 14.170,13.794 13.836 C 13.946 13.636,14.009 13.298,13.951 12.989 C 13.907 12.757,13.637 12.437,13.403 12.339 C 13.072 12.201,12.771 12.245,12.299 12.502 C 11.628 12.866,11.180 12.984,10.480 12.981 C 9.793 12.978,9.262 12.832,8.705 12.495 C 7.083 11.514,6.537 9.400,7.475 7.742 C 7.569 7.576,7.828 7.257,8.050 7.034 C 8.380 6.702,8.545 6.584,8.960 6.385 C 9.559 6.098,9.867 6.027,10.507 6.027 C 11.180 6.027,11.460 6.098,12.190 6.457 C 12.892 6.802,13.064 6.833,13.416 6.673 C 13.976 6.419,14.179 5.758,13.856 5.237 C 13.642 4.890,12.713 4.401,11.846 4.179 C 11.195 4.012,10.249 3.970,9.600 4.079 M20.725 4.055 C 18.946 4.335,17.448 5.395,16.636 6.949 C 14.992 10.094,16.675 13.884,20.133 14.828 C 20.735 14.992,21.831 15.031,22.473 14.910 C 24.751 14.481,26.481 12.751,26.910 10.473 C 27.031 9.831,26.992 8.735,26.828 8.133 C 26.572 7.194,26.154 6.440,25.515 5.762 C 24.713 4.913,23.761 4.371,22.640 4.127 C 22.181 4.027,21.150 3.988,20.725 4.055 M22.251 6.084 C 22.406 6.116,22.761 6.251,23.040 6.385 C 23.949 6.819,24.630 7.652,24.885 8.640 C 25.002 9.092,25.002 9.893,24.886 10.347 C 24.581 11.531,23.715 12.449,22.534 12.837 C 22.180 12.954,22.006 12.979,21.520 12.981 C 20.515 12.986,19.757 12.672,19.034 11.951 C 18.703 11.622,18.583 11.453,18.384 11.040 C 18.077 10.402,18.003 10.026,18.041 9.291 C 18.089 8.364,18.387 7.692,19.039 7.039 C 19.540 6.537,20.226 6.168,20.853 6.064 C 21.134 6.016,21.980 6.029,22.251 6.084 M6.533 17.075 C 4.975 17.247,3.693 17.989,2.905 19.174 C 2.462 19.840,2.225 20.479,2.076 21.413 C 1.987 21.976,1.943 26.821,2.025 27.185 C 2.146 27.727,2.626 28.058,3.174 27.976 C 3.490 27.929,3.868 27.603,3.943 27.313 C 3.970 27.207,4.003 25.896,4.017 24.400 C 4.037 22.187,4.057 21.613,4.125 21.318 C 4.370 20.258,5.090 19.490,6.133 19.177 C 6.514 19.063,7.715 18.990,9.253 18.987 C 10.675 18.984,10.814 18.951,11.076 18.555 C 11.200 18.368,11.227 18.270,11.227 18.000 C 11.227 17.586,11.053 17.294,10.707 17.126 C 10.482 17.018,10.405 17.014,8.716 17.020 C 7.750 17.024,6.768 17.049,6.533 17.075 M17.733 17.051 C 17.209 17.099,16.548 17.240,16.170 17.386 C 14.626 17.981,13.536 19.264,13.157 20.932 C 13.056 21.378,13.047 21.626,13.027 24.310 C 13.007 27.199,13.007 27.207,13.123 27.446 C 13.294 27.800,13.583 27.973,14.000 27.973 C 14.414 27.973,14.706 27.800,14.874 27.453 C 14.983 27.227,14.987 27.152,14.988 24.983 C 14.989 22.613,15.039 21.603,15.178 21.122 C 15.451 20.175,16.167 19.457,17.118 19.178 C 17.673 19.015,18.806 18.975,22.090 19.002 C 24.809 19.024,25.309 19.040,25.650 19.118 C 26.798 19.380,27.610 20.183,27.876 21.318 C 27.945 21.614,27.967 22.197,27.994 24.507 C 28.025 27.197,28.032 27.342,28.132 27.508 C 28.485 28.092,29.371 28.150,29.777 27.617 C 30.025 27.292,30.041 27.066,30.012 24.325 C 29.991 22.383,29.965 21.668,29.901 21.280 C 29.712 20.129,29.273 19.233,28.540 18.504 C 27.705 17.674,26.702 17.213,25.413 17.068 C 24.972 17.019,18.252 17.003,17.733 17.051 " fill="#1A1C1F" stroke="none" fill-rule="evenodd"></path></svg>
